X:1
T:Down the Hill
Z:id:hn-air-1
S:Henrik Norbeck <henrik.norbeck@MAILBOX.SWIPNET.SE> irtrad-l 2001-20-11
M:6/8
L:1/8
Q:1/8=160
K:Ador
B/A/G/ | EAA A3/E/A/B/ | c/B/A/B/c/A/ B/A/G/A/B/G/ | A/G/E/D/E/F/ G2A |
BcA GED | EAA A2B/c/ | B/A/G/A/B/c/ dBd | e/f/ge dBe | A3/B/A/G/ A3/ :|
|: B/c/d/ | eaa a3/e/a/b/ | c'/b/a/b/c'/a/ bge | dgg g2a |
b/a/g/a/b/g/ age/d/ | eaa a3/e/a/b/ | c'/b/a/b/c'/a/ b/a/g/a/b/g/ |
age dBe |[1 A3/B/A/G/ A3/ :|[2 A3/B/A/G/ A^ce
|: [M:9/8] ae^c A^c/e/A/c/ e/A/^c/e/^c/e/ | [M:6/8] gdB G3/B/d/B/ |
G3/A/B/=c/ dcB | c/B/A/B/c/A/ d/c/B/c/d/B/ | ea^g a3/b/c'/b/ |
a=ge dBe |[1 A3/B/A/G/ A^ce :|[2 A3/B/A/G/ A3/ ||
